X: 887
T: Gönül Yarasından Acı Duyanlar
C: Selahaddin Pınar
O: Turkey
F: http://compmusic.upf.edu/node/140
N: hicaz--sarki--curcuna--gonul_yarasindan--selahattin_pinar
N: makam= hicaz
N: form= sarki
N: usul= curcuna = 10/8
M: 10/8
L: 1/16
K: C _7/8B ^f ^c 
Q: 1/4=156
%%MIDI tuningsystem comma53
c'bab a14b2  | bagf g16  | b2a2 b6b4a2 g2f2  | \
w:  ARANAĞME  |   |   | 
f6f4f4f6  | 
w:   | 
bagf g6g2 f2e2 {=f}e2g2  | =f2e2 d2g2 ^2/4f2=f2 e2d6  | \
w:   |   | 
z4 c2d2 e2f2 g2a4b2  | 
w:   | 
a2g2 =f2e2 b2a2 g2f2 e2d2  | c2B2 B16  | \
w:   |   | 
.A2.B2 .B2.B2 b2a2 g2=f2 e2d2  | 
w:   | 
c2B2 A2B2 A2A4B2 A2B2  | A6a2 g2f2 g2a6  | \
w:   |   | 
c'bab a14b2  | 
w:  ARANAĞME  | 
bagf g16  | b2a2 b6b4a2 g2f2  | f6f4f4f6  | \
w:   |   |   | 
bagf g6g2 f2e2 {=f}e2g2  | 
w:   | 
=f2e2 d2g2 ^2/4f2=f2 e2d6  | z4 c2d2 e2f2 g2a4b2  | \
w:   |   | 
a2g2 =f2e2 b2a2 g2f2 e2d2  | 
w:   | 
c2B2 B16  | .A2.B2 .B2.B2 b2a2 g2=f2 e2d2  | \
w:   |   | 
c2B2 A2B2 A2A4B2 A2B2  | 
w:   | 
A6a2 g2f2 g2a6  | z4 g2a4a4a2 {b}a2g2  | \
w:   |  Gö nül  ya ra  | 
a2b2 c'2d'2 c'2b3ag4ga  | 
w:  sın *  *  *  *  dan  *  *  SAZ  | 
.b4 b2b4b2 a2g4gf  | {g}f8-f2c'2 bab4ac'  | \
w:  *  a cı  du *  yan  |  *  lar   SAZ  | 
b4 c'2c'b a2a4a2 {b}a2g2  | 
w:  *  Fe le *  *  ğin   | 
{g}b3a g2g4gf f2g2 f2e2  | f2g2 a2b2 c'aa2 g2=f4fe  | 
w:  *  kah *  *  rı na   |  bo *  yun  *  *  *  e *  ğer  | 
{=f}e8-e2d'3/2c'/ d'=f'e'd' c'bag  | \
w:  *  miş   SAZ  | 
z4 g2a4a4a2 {b}a2g2  | a2b2 c'2d'2 c'2b3ag4ga  | 
w:  Gö nül  ya ra  |  sın *  *  *  *  dan  *  *  SAZ  | 
.b4 b2b4b2 a2g4gf  | {g}f8-f2c'2 bab4ac'  | \
w:  *  a cı  du *  yan  |  *  lar   SAZ  | 
b4 c'2c'b a2a4a2 {b}a2g2  | 
w:  *  Fe le *  *  ğin   | 
{g}b3a g2g4gf f2g2 f2e2  | f2g2 a2b2 c'aa2 g2=f4fe  | 
w:  *  kah *  *  rı na   |  bo *  yun  *  *  *  e *  ğer  | 
{=f}e8-e2^f2 g2a2 abgb  | a4 a2a4a2 f2=f4a2  | \
w:  *  miş   SAZ  |  *  Ka ra  bah  | 
a18g2  | z4 f2g2 f2g2 f2g2 a2=b2  | 
w:  tın   |  cil ve *  si *  ne   | 
=c'2ba g2f2 edd2 dcd6  | z4 c2d2 e2f2 g2a6  | \
w:  u *  *  yan *  *  *  lar    |  Bir  gün  *  o *  lur   | 
g2gb a2g2 =f2{g}f2 e2d3cB2  | 
w:  mu *  *  ra *  *  *  dı *  na   | 
c2d2 e2=f2 e2d2 c2B2 A2c2  | {c}B18A2  | \
w:  e *  rer  |  *  miş    | 
z4 A2A2 B2B2 A2A2 B2c2  | 
w:  mu ra *  dı *  na   | 
d2c2 B4 BAA8-A2  | c'bab a14b2  | bagf g16  | \
w:  e *  rer *  *  miş    |  ARANAĞME  |   | 
b2a2 b6b4a2 g2f2  | 
w:   | 
f6f4f4f6  | bagf g6g2 f2e2 {=f}e2g2  | \
w:   |   | 
=f2e2 d2g2 ^2/4f2=f2 e2d6  | 
w:   | 
z4 c2d2 e2f2 g2a4b2  | a2g2 =f2e2 b2a2 g2f2 e2d2  | \
w:   |   | 
c2B2 B16  | 
w:   | 
.A2.B2 .B2.B2 b2a2 g2=f2 e2d2  | c2B2 A2B2 A2A4B2 A2B2  | \
w:   |   | 
A6a2 g2f2 g2a6  | 
w:   | 
c'bab a14b2  | bagf g16  | b2a2 b6b4a2 g2f2  | \
w:  ARANAĞME  |   |   | 
f6f4f4f6  | 
w:   | 
bagf g6g2 f2e2 {=f}e2g2  | =f2e2 d2g2 ^2/4f2=f2 e2d6  | \
w:   |   | 
z4 c2d2 e2f2 g2a4b2  | 
w:   | 
a2g2 =f2e2 b2a2 g2f2 e2d2  | c2B2 B16  | \
w:   |   | 
.A2.B2 .B2.B2 b2a2 g2=f2 e2d2  | 
w:   | 
c2B2 A2B2 A2A4B2 A2B2  | A6a2 g2f2 g2a6  | \
w:   |   | 
z4 g2a4a4a2 {b}a2g2  | 
w:  Gö nül  ya ra  | 
a2b2 c'2d'2 c'2b3ag4ga  | .b4 b2b4b2 a2g4gf  | \
w:  sın *  *  *  *  dan  *  *  SAZ  |  *  a cı  du *  yan  | 
{g}f8-f2c'2 bab4ac'  | 
w:  *  lar   SAZ  | 
b4 c'2c'b a2a4a2 {b}a2g2  | {g}b3a g2g4gf f2g2 f2e2  | \
w:  *  Fe le *  *  ğin   |  *  kah *  *  rı na   | 
f2g2 a2b2 c'aa2 g2=f4fe  | 
w:  bo *  yun  *  *  *  e *  ğer  | 
{=f}e8-e2d'3/2c'/ d'=f'e'd' c'bag  | \
w:  *  miş   SAZ  | 
z4 g2a4a4a2 {b}a2g2  | a2b2 c'2d'2 c'2b3ag4ga  | 
w:  Gö nül  ya ra  |  sın *  *  *  *  dan  *  *  SAZ  | 
.b4 b2b4b2 a2g4gf  | {g}f8-f2c'2 bab4ac'  | \
w:  *  a cı  du *  yan  |  *  lar   SAZ  | 
b4 c'2c'b a2a4a2 {b}a2g2  | 
w:  *  Fe le *  *  ğin   | 
{g}b3a g2g4gf f2g2 f2e2  | f2g2 a2b2 c'aa2 g2=f4fe  | 
w:  *  kah *  *  rı na   |  bo *  yun  *  *  *  e *  ğer  | 
{=f}e8-e2^f2 g2a2 abgb  | a4 a2a4a2 f2=f4a2  | \
w:  *  miş   SAZ  |  *  Ka ra  bah  | 
a18g2  | z4 f2g2 f2g2 f2g2 a2=b2  | 
w:  tın   |  cil ve *  si *  ne   | 
=c'2ba g2f2 edd2 dcd6  | z4 c2d2 e2f2 g2a6  | \
w:  u *  *  yan *  *  *  lar    |  Bir  gün  *  o *  lur   | 
g2gb a2g2 =f2{g}f2 e2d3cB2  | 
w:  mu *  *  ra *  *  *  dı *  na   | 
c2d2 e2=f2 e2d2 c2B2 A2c2  | {c}B18A2  | \
w:  e *  rer  |  *  miş    | 
z4 A2A2 B2B2 A2A2 B2c2  | 
w:  mu ra *  dı *  na   | 
d2c2 B4 BAA8-A2  | |


